Flat-Remix-Dark/apps/scalable/atom.svg

<svg xmlns="http://www.w3.org/2000/svg" xmlns:xlink="http://www.w3.org/1999/xlink" width="384pt" height="384pt" version="1.1" viewBox="0 0 384 384"> <defs> <filter id="alpha" width="100%" height="100%" x="0%" y="0%" filterUnits="objectBoundingBox"> <feColorMatrix in="SourceGraphic" type="matrix" values="0 0 0 0 1 0 0 0 0 1 0 0 0 0 1 0 0 0 1 0"/> </filter> <mask id="mask0"> <g filter="url(#alpha)"> <rect width="384" height="384" x="0" y="0" style="fill:rgb(0%,0%,0%);fill-opacity:0.301961"/> </g> </mask> <clipPath id="clip1"> <rect width="384" height="384" x="0" y="0"/> </clipPath> <g id="surface5" clip-path="url(#clip1)"> <path style="fill:rgb(0%,0%,0%);fill-opacity:0.921569" d="M 23.292969 188.25 C 23.265625 189.496094 23.25 190.746094 23.25 192 C 23.25 238.601562 39.730469 278.394531 72.675781 311.339844 C 105.621094 344.285156 145.398438 360.75 192 360.75 C 238.601562 360.75 278.394531 344.285156 311.339844 311.339844 C 329.484375 293.179688 342.640625 272.941406 350.792969 250.652344 C 357.425781 232.472656 360.75 212.933594 360.75 192 C 360.75 190.769531 360.734375 189.546875 360.710938 188.324219 C 360.332031 207.816406 357.019531 226.082031 350.792969 243.152344 C 342.640625 265.441406 329.484375 285.679688 311.339844 303.839844 C 278.394531 336.785156 238.601562 353.25 192 353.25 C 145.398438 353.25 105.621094 336.785156 72.675781 303.839844 C 40.617188 271.78125 24.15625 233.238281 23.292969 188.25 Z M 23.292969 188.25"/> </g> </defs> <g> <path style="fill:rgb(6.666%,17.647%,36.078%)" d="M 348.46875 127.394531 C 346.417969 122.425781 344.105469 117.558594 341.535156 112.792969 C 340.085938 110.09375 338.546875 107.410156 336.921875 104.78125 C 329.933594 93.449219 321.40625 82.742188 311.339844 72.675781 C 278.394531 39.730469 238.601562 23.25 192 23.25 C 145.398438 23.25 105.621094 39.730469 72.675781 72.675781 C 39.730469 105.621094 23.25 145.398438 23.25 192 C 23.25 238.601562 39.730469 278.394531 72.675781 311.339844 C 105.621094 344.285156 145.398438 360.75 192 360.75 C 238.601562 360.75 278.394531 344.285156 311.339844 311.339844 C 329.484375 293.179688 342.640625 272.941406 350.792969 250.652344 C 357.425781 232.472656 360.75 212.933594 360.75 192 C 360.75 175.949219 358.800781 160.699219 354.886719 146.253906 C 354.441406 144.628906 353.976562 143 353.492188 141.394531 C 352.027344 136.636719 350.347656 131.972656 348.46875 127.394531 Z M 348.46875 127.394531"/> <path style="fill:rgb(0%,0%,0%)" d="M 286.5 174.128906 C 286.5 170.625 285.261719 167.636719 282.78125 165.15625 C 280.296875 162.671875 277.3125 161.4375 273.808594 161.4375 C 270.304688 161.4375 267.320312 162.671875 264.835938 165.15625 C 262.347656 167.640625 261.117188 170.625 261.117188 174.128906 C 261.117188 177.632812 262.347656 180.617188 264.835938 183.105469 C 267.320312 185.589844 270.304688 186.820312 273.808594 186.820312 C 277.3125 186.820312 280.296875 185.589844 282.78125 183.105469 C 285.265625 180.617188 286.5 177.632812 286.5 174.128906 Z M 141.523438 133.910156 C 141.523438 130.40625 140.292969 127.417969 137.808594 124.933594 C 135.320312 122.449219 132.335938 121.214844 128.832031 121.214844 C 125.328125 121.214844 122.34375 122.449219 119.859375 124.933594 C 117.375 127.417969 116.140625 130.40625 116.140625 133.910156 C 116.140625 137.414062 117.375 140.398438 119.859375 142.882812 C 122.34375 145.367188 125.328125 146.601562 128.832031 146.601562 C 132.335938 146.601562 135.320312 145.367188 137.808594 142.882812 C 140.292969 140.398438 141.523438 137.414062 141.523438 133.910156 Z M 227.152344 276.378906 C 227.152344 272.878906 225.917969 269.890625 223.433594 267.40625 C 220.949219 264.921875 217.964844 263.6875 214.460938 263.6875 C 210.957031 263.6875 207.96875 264.921875 205.484375 267.40625 C 203 269.890625 201.765625 272.878906 201.765625 276.378906 C 201.765625 279.882812 203 282.871094 205.484375 285.355469 C 207.96875 287.839844 210.957031 289.074219 214.460938 289.074219 C 217.964844 289.074219 220.949219 287.839844 223.433594 285.355469 C 225.917969 282.871094 227.152344 279.882812 227.152344 276.378906 Z M 227.152344 276.378906"/> <path style="fill:rgb(100.000%,100.000%,100.000%)" d="M 229.183594 192 C 229.183594 159.464844 225.910156 131.6875 219.386719 108.679688 C 212.183594 83.277344 203.066406 70.890625 192 71.515625 C 180.933594 70.890625 171.816406 83.277344 164.613281 108.679688 C 158.089844 131.6875 154.816406 159.464844 154.816406 192 C 154.816406 224.535156 158.089844 252.3125 164.613281 275.339844 C 171.816406 300.738281 180.933594 313.109375 192 312.484375 C 203.066406 313.109375 212.183594 300.738281 219.386719 275.339844 C 225.910156 252.3125 229.183594 224.535156 229.183594 192 Z M 211.128906 111.019531 C 217.4375 133.382812 220.601562 160.378906 220.601562 192 C 220.601562 223.621094 217.4375 250.632812 211.128906 272.996094 C 205.460938 293 199.097656 303.3125 192 303.902344 C 184.902344 303.3125 178.539062 293 172.871094 272.996094 C 166.5625 250.632812 163.398438 223.621094 163.398438 192 C 163.398438 160.378906 166.5625 133.382812 172.871094 111.019531 C 178.539062 91 184.902344 80.6875 192 80.097656 C 199.085938 80.695312 205.464844 91 211.128906 111.011719 Z M 211.128906 111.019531"/> <path style="fill:rgb(100.000%,100.000%,100.000%)" d="M 173.410156 224.226562 C 145.234375 207.957031 122.8125 191.234375 106.152344 174.082031 C 87.753906 155.140625 81.585938 141.054688 87.660156 131.785156 C 92.652344 121.886719 107.9375 120.1875 133.539062 126.648438 C 156.722656 132.503906 182.414062 143.558594 210.589844 159.824219 C 238.765625 176.09375 261.1875 192.816406 277.863281 209.976562 C 296.257812 228.917969 302.414062 243 296.339844 252.269531 C 291.347656 262.164062 276.078125 263.875 250.476562 257.410156 C 227.277344 251.550781 201.582031 240.492188 173.410156 224.226562 Z M 112.308594 168.101562 C 128.519531 184.746094 150.3125 200.984375 177.699219 216.792969 C 205.085938 232.605469 230.058594 243.371094 252.578125 249.089844 C 272.734375 254.183594 284.847656 253.828125 288.910156 247.976562 C 291.945312 241.535156 286.195312 230.867188 271.707031 215.960938 C 255.496094 199.3125 233.6875 183.066406 206.300781 167.257812 C 178.914062 151.445312 153.957031 140.6875 131.4375 134.972656 C 111.265625 129.867188 99.148438 130.222656 95.089844 136.074219 C 92.066406 142.511719 97.804688 153.183594 112.300781 168.097656 Z M 112.308594 168.101562"/> <path style="fill:rgb(100.000%,100.000%,100.000%)" d="M 210.589844 224.226562 C 238.765625 207.957031 261.1875 191.234375 277.847656 174.082031 C 296.246094 155.140625 302.414062 141.054688 296.339844 131.785156 C 291.347656 121.886719 276.0625 120.1875 250.460938 126.648438 C 227.277344 132.503906 201.585938 143.558594 173.410156 159.824219 C 145.234375 176.09375 122.8125 192.816406 106.136719 209.976562 C 87.742188 228.917969 81.585938 243 87.660156 252.269531 C 92.652344 262.164062 107.921875 263.875 133.523438 257.410156 C 156.722656 251.550781 182.417969 240.492188 210.589844 224.226562 Z M 271.691406 168.101562 C 255.480469 184.746094 233.6875 200.984375 206.300781 216.792969 C 178.914062 232.605469 153.941406 243.371094 131.421875 249.089844 C 111.265625 254.183594 99.152344 253.828125 95.089844 247.976562 C 92.054688 241.535156 97.804688 230.867188 112.292969 215.960938 C 128.503906 199.3125 150.3125 183.066406 177.699219 167.257812 C 205.085938 151.445312 230.042969 140.6875 252.5625 134.972656 C 272.734375 129.867188 284.851562 130.222656 288.910156 136.074219 C 291.933594 142.511719 286.195312 153.183594 271.699219 168.097656 Z M 271.691406 168.101562"/> <path style="fill:rgb(72.156%,9.019%,29.803%)" d="M 205.390625 205.390625 C 209.09375 201.695312 210.949219 197.230469 210.949219 192 C 210.949219 186.761719 209.089844 182.292969 205.390625 178.59375 C 201.6875 174.894531 197.238281 173.050781 192 173.050781 C 186.761719 173.050781 182.292969 174.894531 178.59375 178.59375 C 174.894531 182.292969 173.050781 186.761719 173.050781 192 C 173.050781 197.238281 174.894531 201.6875 178.59375 205.390625 C 182.292969 209.089844 186.761719 210.949219 192 210.949219 C 197.238281 210.949219 201.6875 209.089844 205.390625 205.390625 Z M 205.390625 205.390625"/> <path style="fill:rgb(100.000%,78.039%,18.823%)" d="M 286.5 172.628906 C 286.5 169.125 285.261719 166.136719 282.78125 163.65625 C 280.296875 161.171875 277.3125 159.9375 273.808594 159.9375 C 270.304688 159.9375 267.320312 161.171875 264.835938 163.65625 C 262.347656 166.140625 261.117188 169.125 261.117188 172.628906 C 261.117188 176.132812 262.347656 179.117188 264.835938 181.605469 C 267.320312 184.089844 270.304688 185.320312 273.808594 185.320312 C 277.3125 185.320312 280.296875 184.089844 282.78125 181.605469 C 285.265625 179.117188 286.5 176.132812 286.5 172.628906 Z M 141.523438 132.410156 C 141.523438 128.90625 140.292969 125.917969 137.808594 123.433594 C 135.320312 120.949219 132.335938 119.714844 128.832031 119.714844 C 125.328125 119.714844 122.34375 120.949219 119.859375 123.433594 C 117.375 125.917969 116.140625 128.90625 116.140625 132.410156 C 116.140625 135.914062 117.375 138.898438 119.859375 141.382812 C 122.34375 143.867188 125.328125 145.101562 128.832031 145.101562 C 132.335938 145.101562 135.320312 143.867188 137.808594 141.382812 C 140.292969 138.898438 141.523438 135.914062 141.523438 132.410156 Z M 227.152344 274.878906 C 227.152344 271.378906 225.917969 268.390625 223.433594 265.90625 C 220.949219 263.421875 217.964844 262.1875 214.460938 262.1875 C 210.957031 262.1875 207.96875 263.421875 205.484375 265.90625 C 203 268.390625 201.765625 271.378906 201.765625 274.878906 C 201.765625 278.382812 203 281.371094 205.484375 283.855469 C 207.96875 286.339844 210.957031 287.574219 214.460938 287.574219 C 217.964844 287.574219 220.949219 286.339844 223.433594 283.855469 C 225.917969 281.371094 227.152344 278.382812 227.152344 274.878906 Z M 227.152344 274.878906"/> <use mask="url(#mask0)" xlink:href="#surface5"/> </g> </svg>

<svg width="512" height="512" version="1.1" viewBox="0 0 384 384" xmlns="http://www.w3.org/2000/svg"><defs><clipPath><rect width="384" height="384"/></clipPath></defs><path d="m348.47 127.39c-2.0508-4.9688-4.3633-9.8359-6.9336-14.602-1.4492-2.6992-2.9883-5.3828-4.6133-8.0117-6.9883-11.332-15.516-22.039-25.582-32.105-32.945-32.945-72.738-49.426-119.34-49.426s-86.379 16.48-119.32 49.426c-32.945 32.945-49.426 72.723-49.426 119.32s16.48 86.395 49.426 119.34c32.945 32.945 72.723 49.41 119.32 49.41s86.395-16.465 119.34-49.41c18.145-18.16 31.301-38.398 39.453-60.688 6.6328-18.18 9.957-37.719 9.957-58.652 0-16.051-1.9492-31.301-5.8633-45.746-0.44531-1.625-0.91016-3.2539-1.3945-4.8594-1.4648-4.7578-3.1445-9.4219-5.0234-14z" fill="#102c5b"/><path d="m286.5 174.13c0-3.5039-1.2383-6.4922-3.7188-8.9727-2.4844-2.4844-5.4688-3.7188-8.9727-3.7188s-6.4883 1.2344-8.9727 3.7188c-2.4883 2.4844-3.7188 5.4688-3.7188 8.9727s1.2305 6.4883 3.7188 8.9766c2.4844 2.4844 5.4688 3.7148 8.9727 3.7148s6.4883-1.2305 8.9727-3.7148c2.4844-2.4883 3.7188-5.4727 3.7188-8.9766zm-144.98-40.219c0-3.5039-1.2305-6.4922-3.7148-8.9766-2.4883-2.4844-5.4727-3.7188-8.9766-3.7188-3.5039 0-6.4883 1.2344-8.9727 3.7188s-3.7188 5.4727-3.7188 8.9766 1.2344 6.4883 3.7188 8.9727c2.4844 2.4844 5.4688 3.7188 8.9727 3.7188 3.5039 0 6.4883-1.2344 8.9766-3.7188 2.4844-2.4844 3.7148-5.4688 3.7148-8.9727zm85.629 142.47c0-3.5-1.2344-6.4883-3.7188-8.9727s-5.4688-3.7188-8.9727-3.7188c-3.5039 0-6.4922 1.2344-8.9766 3.7188s-3.7188 5.4727-3.7188 8.9727c0 3.5039 1.2344 6.4922 3.7188 8.9766s5.4727 3.7188 8.9766 3.7188c3.5039 0 6.4883-1.2344 8.9727-3.7188s3.7188-5.4727 3.7188-8.9766z"/><g fill="#fff"><path d="m229.18 192c0-32.535-3.2734-60.312-9.7969-83.32-7.2031-25.402-16.32-37.789-27.387-37.164-11.066-0.625-20.184 11.762-27.387 37.164-6.5234 23.008-9.7969 50.785-9.7969 83.32s3.2734 60.312 9.7969 83.34c7.2031 25.398 16.32 37.77 27.387 37.145 11.066 0.625 20.184-11.746 27.387-37.145 6.5234-23.027 9.7969-50.805 9.7969-83.34zm-18.055-80.98c6.3086 22.363 9.4727 49.359 9.4727 80.98s-3.1641 58.633-9.4727 80.996c-5.668 20.004-12.031 30.316-19.129 30.906-7.0977-0.58984-13.461-10.902-19.129-30.906-6.3086-22.363-9.4727-49.375-9.4727-80.996s3.1641-58.617 9.4727-80.98c5.668-20.02 12.031-30.332 19.129-30.922 7.0859 0.59766 13.465 10.902 19.129 30.914z"/><path d="m173.41 224.23c-28.176-16.27-50.598-32.992-67.258-50.145-18.398-18.941-24.566-33.027-18.492-42.297 4.9922-9.8984 20.277-11.598 45.879-5.1367 23.184 5.8555 48.875 16.91 77.051 33.176 28.176 16.27 50.598 32.992 67.273 50.152 18.395 18.941 24.551 33.023 18.477 42.293-4.9922 9.8945-20.262 11.605-45.863 5.1406-23.199-5.8594-48.895-16.918-77.066-33.184zm-61.102-56.125c16.211 16.645 38.004 32.883 65.391 48.691 27.387 15.812 52.359 26.578 74.879 32.297 20.156 5.0938 32.27 4.7383 36.332-1.1133 3.0352-6.4414-2.7148-17.109-17.203-32.016-16.211-16.648-38.02-32.895-65.406-48.703-27.387-15.812-52.344-26.57-74.863-32.285-20.172-5.1055-32.289-4.75-36.348 1.1016-3.0234 6.4375 2.7148 17.109 17.211 32.023z"/><path d="m210.59 224.23c28.176-16.27 50.598-32.992 67.258-50.145 18.398-18.941 24.566-33.027 18.492-42.297-4.9922-9.8984-20.277-11.598-45.879-5.1367-23.184 5.8555-48.875 16.91-77.051 33.176-28.176 16.27-50.598 32.992-67.273 50.152-18.395 18.941-24.551 33.023-18.477 42.293 4.9922 9.8945 20.262 11.605 45.863 5.1406 23.199-5.8594 48.895-16.918 77.066-33.184zm61.102-56.125c-16.211 16.645-38.004 32.883-65.391 48.691-27.387 15.812-52.359 26.578-74.879 32.297-20.156 5.0938-32.27 4.7383-36.332-1.1133-3.0352-6.4414 2.7148-17.109 17.203-32.016 16.211-16.648 38.02-32.895 65.406-48.703 27.387-15.812 52.344-26.57 74.863-32.285 20.172-5.1055 32.289-4.75 36.348 1.1016 3.0234 6.4375-2.7148 17.109-17.211 32.023z"/></g><path d="m205.39 205.39c3.7031-3.6953 5.5586-8.1602 5.5586-13.391 0-5.2383-1.8594-9.707-5.5586-13.406-3.7031-3.6992-8.1523-5.543-13.391-5.543s-9.707 1.8438-13.406 5.543-5.543 8.168-5.543 13.406 1.8438 9.6875 5.543 13.391c3.6992 3.6992 8.168 5.5586 13.406 5.5586s9.6875-1.8594 13.391-5.5586z" fill="#b7164b"/><path d="m286.5 172.63c0-3.5039-1.2383-6.4922-3.7188-8.9727-2.4844-2.4844-5.4688-3.7188-8.9727-3.7188s-6.4883 1.2344-8.9727 3.7188c-2.4883 2.4844-3.7188 5.4688-3.7188 8.9727s1.2305 6.4883 3.7188 8.9766c2.4844 2.4844 5.4688 3.7148 8.9727 3.7148s6.4883-1.2305 8.9727-3.7148c2.4844-2.4883 3.7188-5.4727 3.7188-8.9766zm-144.98-40.219c0-3.5039-1.2305-6.4922-3.7148-8.9766-2.4883-2.4844-5.4727-3.7188-8.9766-3.7188-3.5039 0-6.4883 1.2344-8.9727 3.7188s-3.7188 5.4727-3.7188 8.9766 1.2344 6.4883 3.7188 8.9727c2.4844 2.4844 5.4688 3.7188 8.9727 3.7188 3.5039 0 6.4883-1.2344 8.9766-3.7188 2.4844-2.4844 3.7148-5.4688 3.7148-8.9727zm85.629 142.47c0-3.5-1.2344-6.4883-3.7188-8.9727s-5.4688-3.7188-8.9727-3.7188c-3.5039 0-6.4922 1.2344-8.9766 3.7188s-3.7188 5.4727-3.7188 8.9727c0 3.5039 1.2344 6.4922 3.7188 8.9766s5.4727 3.7188 8.9766 3.7188c3.5039 0 6.4883-1.2344 8.9727-3.7188s3.7188-5.4727 3.7188-8.9766z" fill="#ffc62f"/><path transform="scale(.75)" d="m31.055 251c-0.031908 1.661-0.054688 3.3258-0.054688 5 0 62.135 21.973 115.19 65.9 159.12 43.927 43.927 96.964 65.881 159.1 65.881 62.135 0 115.19-21.954 159.12-65.881 24.193-24.214 41.736-51.197 52.605-80.916 8.8438-24.24 13.275-50.292 13.275-78.203 0-1.6406-0.02023-3.2724-0.05078-4.9004-0.50897 25.991-4.9218 50.347-13.225 73.104-10.87 29.719-28.413 56.702-52.605 80.916-43.927 43.927-96.984 65.881-159.12 65.881-62.135 0-115.17-21.954-159.1-65.881-42.743-42.743-64.693-94.134-65.846-154.12z" opacity=".3" stroke-width="1.3333"/><path transform="scale(.75)" d="m256 31c-62.135 0-115.17 21.973-159.1 65.9-43.927 43.927-65.9 96.964-65.9 159.1 0 1.6742 0.02278 3.3389 0.054688 5 1.1523-59.984 23.102-111.36 65.846-154.1 43.927-43.927 96.964-65.9 159.1-65.9 62.135 0 115.19 21.973 159.12 65.9 13.422 13.422 24.792 27.699 34.109 42.809 2.1667 3.5052 4.22 7.0827 6.1523 10.682 3.4271 6.3542 6.5098 12.844 9.2441 19.469 2.5052 6.1042 4.7442 12.322 6.6973 18.666 0.64584 2.1406 1.2656 4.3138 1.8594 6.4805 4.8187 17.784 7.3996 36.484 7.7676 56.094 0.03316-1.6933 0.05078-3.3924 0.05078-5.0996 0-21.401-2.5996-41.734-7.8184-60.994-0.59373-2.1667-1.2135-4.3399-1.8594-6.4805-1.9531-6.3438-4.1921-12.562-6.6973-18.666-2.7344-6.625-5.8171-13.115-9.2441-19.469-1.9323-3.599-3.9857-7.1764-6.1523-10.682-9.3177-15.109-20.687-29.387-34.109-42.809-43.927-43.927-96.984-65.9-159.12-65.9z" fill="#fff" opacity=".3" stroke-width="1.3333"/></svg>
